!!!COM: Mozart
!!!OTL: 9 Variationen uber ein Minuett von Duport
!!!Variation: Variation 6 c
**function	**harm	**kern	**kern
*	*	*clefF4	*clefG2
*	*	*k[b-]	*k[b-]
*M3/4	*M3/4	*M3/4	*M3/4
*d:	*d:	*d:	*d:
=153	=153	=153	=153
2.D	2.V	4r	4ee
.	.	(4A' 4c#'	8r
.	.	.	(8ee'
.	.	4A') 4c#'	8ee'L
.	.	.	8ee'J)
*	*	*clefG2	*
=154	=154	=154	=154
2.D	2.V	4r	(8.eeL
.	.	.	16aaJk)
.	.	(4a' 4cc#'	(4.aa
.	.	4a') 4cc#'	.
.	.	.	8ee)
=155	=155	=155	=155
2.T	2.i	4r	(8ggL
.	.	.	8ffJ)
.	.	(4d' 4a'	8r
.	.	.	(8ff'
.	.	4d') 4a'	8ff'L
.	.	.	8ff'J)
=156	=156	=156	=156
2.T	2.i	4r	8.ffL
.	.	.	16ggJk
.	.	(4dd' 4ff'	4.aa
.	.	4dd') 4ff'	.
.	.	.	8ddd
=157	=157	=157	=157
4T	4viioD7	(4cc# 4gg	(8cccnL
.	.	.	8bb-J
2T	2i	8dd) 8ff	16aaLL)
.	.	.	(16fff
.	.	8r	16eee
.	.	.	16dddJJ
.	.	4r	16ccc#LL
.	.	.	16ddd
.	.	.	16eee
.	.	.	16dddJJ
=158	=158	=158	=158
4T	4viioD7	(4cc# 4gg	8cccnL
.	.	.	8bb-J
2T	2i	8dd) 8ff	16aaLL)
.	.	.	(16bb-
.	.	8r	16bb
.	.	.	16cccJJ
.	.	4r	16ccc#'LL
.	.	.	16ddd'
.	.	.	16eee'
.	.	.	16fff'JJ)
=159	=159	=159	=159
4P	4viioD7b/V	(4b	(8fffL
.	.	.	8gg#J)
4P	4viio	4cc#	(8ggL
.	.	.	8eeeJ)
4P	4viioD7/V	8ddL)	(8ffL
.	.	8g#J	8bbJ)
=160	=160	=160	=160
2D	2ic	(2a 2dd	(4aa
.	.	.	16ggLL
.	.	.	16ff
.	.	.	16ee
.	.	.	16ffJJ
4D	4V	8a) 8cc#	8ee)
.	.	8r	8r
*-	*-	*-	*-
